img/icons-payable-taxes/06.svg

<svg width="50" height="28" viewBox="0 0 50 28" fill="none" xmlns="http://www.w3.org/2000/svg">
<path d="M46.3131 9.52851H38.759C37.4658 9.52851 36.2462 9.02871 35.3248 8.12128L29.308 2.19501C28.0106 0.917182 26.2934 0.21347 24.4724 0.21347H22.4609C22.0564 0.21347 21.7285 0.5414 21.7285 0.945892C21.7285 1.35038 22.0564 1.67831 22.4609 1.67831H24.4725C25.9063 1.67831 27.2586 2.23242 28.2802 3.23867L28.726 3.67773H24.3817C23.1481 3.67773 22.1445 4.68134 22.1445 5.91494V8.75615C22.1445 9.98974 23.1481 10.9934 24.3817 10.9934H46.3131C47.5383 10.9934 48.5352 11.9902 48.5352 13.2154V13.2441H47.0767C46.0978 13.2441 45.3013 14.0406 45.3013 15.0195V15.8398C45.3013 16.8187 46.0978 17.6152 47.0767 17.6152H48.5352V19.1113H43.1334C42.1872 18.084 40.832 17.4389 39.3285 17.4389C37.825 17.4389 36.4698 18.084 35.5236 19.1113H14.8678C13.9216 18.084 12.5663 17.4389 11.0629 17.4389C9.55947 17.4389 8.2041 18.084 7.25801 19.1113H1.46484V17.3828C1.46484 16.9783 1.13691 16.6504 0.732422 16.6504C0.32793 16.6504 0 16.9783 0 17.3828V20.754C0 22.5418 1.45449 23.9963 3.24229 23.9963H6.07842C6.68516 26.1793 8.68926 27.7865 11.0629 27.7865C13.9157 27.7865 16.2367 25.4655 16.2367 22.6127C16.2367 21.8899 16.0872 21.2016 15.8184 20.5762H34.573C34.3144 21.1779 34.1676 21.8384 34.1567 22.5313H18.8398C18.4354 22.5313 18.1074 22.8593 18.1074 23.2638C18.1074 23.6683 18.4354 23.9962 18.8398 23.9962H34.344C34.9508 26.1792 36.9549 27.7864 39.3285 27.7864C41.7021 27.7864 43.7063 26.1791 44.313 23.9962H46.7577C48.5455 23.9962 50 22.5417 50 20.7539V19.8436V13.2153C50 11.1824 48.346 9.52851 46.3131 9.52851ZM24.3817 9.52851C23.9559 9.52851 23.6094 9.18202 23.6094 8.75615V5.91494C23.6094 5.48906 23.9559 5.14257 24.3817 5.14257H30.2132L34.297 9.16484C34.4269 9.29277 34.5621 9.41318 34.7007 9.52851H24.3817ZM1.46484 20.754V20.5762H6.30742C6.04873 21.1779 5.90195 21.8384 5.89111 22.5313H3.24229C2.26221 22.5313 1.46484 21.7341 1.46484 20.754ZM11.0629 26.3217C9.01777 26.3217 7.35391 24.6578 7.35391 22.6127C7.35391 20.5676 9.01777 18.9037 11.0629 18.9037C13.108 18.9037 14.7719 20.5676 14.7719 22.6127C14.7719 24.6578 13.108 26.3217 11.0629 26.3217ZM47.0767 16.1504C46.9055 16.1504 46.7661 16.011 46.7661 15.8398V15.0195C46.7661 14.8483 46.9055 14.709 47.0767 14.709H48.5352V16.1504H47.0767ZM39.3285 26.3217C37.2834 26.3217 35.6195 24.6578 35.6195 22.6127C35.6195 20.5676 37.2834 18.9037 39.3285 18.9037C41.3736 18.9037 43.0375 20.5676 43.0375 22.6127C43.0375 24.6578 41.3737 26.3217 39.3285 26.3217ZM46.7577 22.5313H44.5003C44.4896 21.8384 44.3427 21.1779 44.084 20.5762H48.5352V20.754C48.5352 21.734 47.7378 22.5313 46.7577 22.5313Z" fill="#007A65"/>
</svg>

<svg width="50" height="28" fill="none" xmlns="http://www.w3.org/2000/svg"><path d="M46.313 9.529H38.76c-1.293 0-2.513-.5-3.434-1.408l-6.017-5.926A6.85 6.85 0 0024.472.213h-2.011a.732.732 0 000 1.465h2.012c1.433 0 2.786.554 3.807 1.56l.446.44h-4.344a2.24 2.24 0 00-2.238 2.237v2.841a2.24 2.24 0 002.238 2.237h21.931c1.225 0 2.222.997 2.222 2.222v.03h-1.458c-.98 0-1.776.796-1.776 1.775v.82c0 .979.797 1.775 1.776 1.775h1.458v1.496h-5.402a5.16 5.16 0 00-7.61 0H14.869a5.16 5.16 0 00-7.61 0H1.465v-1.728a.732.732 0 00-1.465 0v3.371a3.246 3.246 0 003.242 3.242h2.836a5.182 5.182 0 004.985 3.79 5.18 5.18 0 005.174-5.173c0-.723-.15-1.411-.419-2.037h18.755a5.146 5.146 0 00-.416 1.955H18.84a.733.733 0 000 1.465h15.504a5.182 5.182 0 004.984 3.79 5.182 5.182 0 004.985-3.79h2.445A3.246 3.246 0 0050 20.754v-7.539a3.691 3.691 0 00-3.687-3.686zm-21.931 0a.773.773 0 01-.773-.773V5.915c0-.426.347-.772.773-.772h5.831l4.084 4.022a6.6 6.6 0 00.404.364H24.38zM1.465 20.754v-.178h4.842a5.143 5.143 0 00-.416 1.955H3.242a1.78 1.78 0 01-1.777-1.777zm9.598 5.568a3.713 3.713 0 01-3.71-3.71 3.713 3.713 0 013.71-3.708 3.713 3.713 0 013.709 3.709 3.713 3.713 0 01-3.71 3.709zM47.077 16.15a.311.311 0 01-.31-.31v-.82a.31.31 0 01.31-.311h1.458v1.441h-1.458zm-7.748 10.172a3.713 3.713 0 01-3.71-3.71 3.713 3.713 0 013.71-3.708 3.713 3.713 0 013.709 3.709 3.713 3.713 0 01-3.71 3.709zm7.429-3.79H44.5a5.14 5.14 0 00-.416-1.956h4.451v.178a1.78 1.78 0 01-1.777 1.777z" fill="#007A65"/></svg>
